X: 104103
T: DUKE OF GORDON
Q:"Strathspey."
R: Strathspey.
%R:strathspey
Z: 2017 by John Chambers <jc:trillian.mit.edu>
B: Kerr's Merrie Melodies v.1 p.4 s.1 #3
M: C
L: 1/8
K: G
|:\
G>DG>B G>D (G<B) | d>Bg>B A/A/A A2 |\
G>DG>B G>DG>B | d>cB>A G/G/G G2 ::\
g>ab>g d/d/d d2 | g>ab>g e/e/e e2 |\
g<b e<g d<g B<g | A>GA>B G/G/G G2 :|

%%sep 1 1 500
%%sep 1 1 500

